icons/unity-panel/22x22/panel/gtk-dialog-authentication-panel.svg

<svg version="1.1" viewBox="0 0 14 22" xmlns="http://www.w3.org/2000/svg">
 <path d="m12 5.445c0-0.52-0.048-0.94-0.191-1.304-0.144-0.364-0.41-0.662-0.735-0.832-0.648-0.34-1.402-0.299-2.431-0.309h-3.286c-1.029 0.012-1.784-0.031-2.431 0.309-0.324 0.17-0.591 0.468-0.735 0.832-0.143 0.364-0.191 0.784-0.191 1.304v3.112c0 0.52 0.048 0.94 0.191 1.304 0.144 0.364 0.41 0.66 0.735 0.83 0.563 0.296 1.241 0.297 2.076 0.301l4e-3 1.946 0.494 0.562-0.5 0.5 0.5 0.5-0.5 0.5 0.5 0.5-1 1 2.5 2.5 2-2-2e-3 -6.008c0.835 0 1.513-0.01 2.076-0.3a1.607 1.607 0 0 0 0.734-0.833c0.144-0.363 0.192-0.782 0.192-1.302zm-1 0v3.112c0 0.451-0.052 0.756-0.123 0.935-0.07 0.18-0.134 0.244-0.268 0.315-0.268 0.14-0.944 0.182-1.978 0.193h-0.633l2e-3 6.586-1 1-1.086-1.086 1-1-0.5-0.5 0.5-0.5-0.5-0.5 0.455-0.455-0.863-0.984-6e-3 -2.561h-0.63c-1.035-0.011-1.711-0.053-1.98-0.193-0.133-0.07-0.196-0.135-0.267-0.315-0.07-0.18-0.123-0.484-0.123-0.935v-3.112c0-0.451 0.052-0.758 0.123-0.937 0.071-0.18 0.134-0.242 0.268-0.313 0.267-0.14 0.943-0.183 1.972-0.195h3.274c1.029 0.012 1.705 0.055 1.973 0.195 0.134 0.07 0.196 0.133 0.267 0.313s0.123 0.486 0.123 0.937zm-3 0.555a1 1 0 0 0-1-1 1 1 0 0 0-1 1 1 1 0 0 0 1 1 1 1 0 0 0 1-1z" fill="#fff" font-family="sans-serif" font-weight="400" overflow="visible" style="font-feature-settings:normal;font-variant-alternates:normal;font-variant-caps:normal;font-variant-ligatures:normal;font-variant-numeric:normal;font-variant-position:normal;isolation:auto;mix-blend-mode:normal;shape-padding:0;text-decoration-color:#000000;text-decoration-line:none;text-decoration-style:solid;text-indent:0;text-orientation:mixed;text-transform:none" white-space="normal"/>
</svg>

<?xml version="1.0" encoding="UTF-8" standalone="no"?>
<svg
   viewBox="0 0 14 22"
   version="1.1"
   id="svg4"
   sodipodi:docname="gtk-dialog-authentication-panel.svg"
   inkscape:version="1.1.1 (3bf5ae0d25, 2021-09-20)"
   xmlns:inkscape="http://www.inkscape.org/namespaces/inkscape"
   xmlns:sodipodi="http://sodipodi.sourceforge.net/DTD/sodipodi-0.dtd"
   xmlns="http://www.w3.org/2000/svg"
   xmlns:svg="http://www.w3.org/2000/svg">
  <defs
     id="defs8" />
  <sodipodi:namedview
     id="namedview6"
     pagecolor="#ffffff"
     bordercolor="#666666"
     borderopacity="1.0"
     inkscape:pageshadow="2"
     inkscape:pageopacity="0.0"
     inkscape:pagecheckerboard="0"
     showgrid="true"
     inkscape:zoom="24.181818"
     inkscape:cx="7.0093985"
     inkscape:cy="11"
     inkscape:window-width="1852"
     inkscape:window-height="1043"
     inkscape:window-x="1434"
     inkscape:window-y="0"
     inkscape:window-maximized="1"
     inkscape:current-layer="svg4">
    <inkscape:grid
       type="xygrid"
       id="grid843" />
  </sodipodi:namedview>
  <path
     d="M 12,5.445 C 12,4.925 11.952,4.505 11.809,4.141 11.665,3.777 11.399,3.479 11.074,3.309 10.426,2.969 9.672,3.01 8.643,3 H 5.357 C 4.328,3.012 3.573,2.969 2.926,3.309 2.602,3.479 2.335,3.777 2.191,4.141 2.048,4.505 2,4.925 2,5.445 v 3.112 c 0,0.52 0.048,0.94 0.191,1.304 0.144,0.364 0.41,0.66 0.735,0.83 0.563,0.296 1.241,0.297 2.076,0.301 L 5.006,12.938 5.5,13.5 5,14 5.5,14.5 5,15 l 0.5,0.5 -1,1 L 7,19 9,17 8.998,10.992 c 0.835,0 1.513,-0.01 2.076,-0.3 A 1.607,1.607 0 0 0 11.808,9.859 C 11.952,9.496 12,9.077 12,8.557 Z m -1,0 v 3.112 c 0,0.451 -0.052,0.756 -0.123,0.935 -0.07,0.18 -0.134,0.244 -0.268,0.315 C 10.341,9.947 9.665,9.989 8.631,10 H 7.998 L 8,16.586 l -1,1 -1.086,-1.086 1,-1 -0.5,-0.5 0.5,-0.5 L 6.414,14 6.869,13.545 6.006,12.561 6,10 H 5.37 C 4.335,9.989 3.659,9.947 3.39,9.807 3.257,9.737 3.194,9.672 3.123,9.492 3.053,9.312 3,9.008 3,8.557 V 5.445 C 3,4.994 3.052,4.687 3.123,4.508 3.194,4.328 3.257,4.266 3.391,4.195 3.658,4.055 4.334,4.012 5.363,4 h 3.274 c 1.029,0.012 1.705,0.055 1.973,0.195 0.134,0.07 0.196,0.133 0.267,0.313 C 10.948,4.688 11,4.994 11,5.445 Z M 8,6 A 1,1 0 0 0 7,5 1,1 0 0 0 6,6 1,1 0 0 0 7,7 1,1 0 0 0 8,6 Z"
     fill="#808080"
     font-family="sans-serif"
     font-weight="400"
     overflow="visible"
     style="font-variant-ligatures:normal;font-variant-position:normal;font-variant-caps:normal;font-variant-numeric:normal;font-variant-alternates:normal;font-feature-settings:normal;text-indent:0;text-decoration-line:none;text-decoration-style:solid;text-decoration-color:#000000;text-transform:none;text-orientation:mixed;shape-padding:0;isolation:auto;mix-blend-mode:normal;fill:#ffffff"
     white-space="normal"
     id="path2-3" />
</svg>
